X: 38723
T: Streamstown, The
R: barndance
M: 4/4
K: Dmajor
|:dFFE DFAF|dGGE BEEc|dFFE DEFG|1 ABAG FDDF:|2 ABAG FDD2||
|:defd cdec|defd BAA2|defd cdec|1 ABAG FDD2:|2 ABAG FDDF||

